src/svg/arrow-alt-circle-down.svg

<svg height="1000" width="1000.0" xmlns="http://www.w3.org/2000/svg">
    <path d="m984.4 500c0 267.6-216.8 484.4-484.4 484.4s-484.4-216.8-484.4-484.4 216.8-484.4 484.4-484.4 484.4 216.8 484.4 484.4z m-570.3-226.6v226.6h-138.5c-20.9 0-31.5 25.4-16.6 40l224.4 223.3c9.2 9.2 23.8 9.2 33 0l224.4-223.3c14.9-14.8 4.3-40-16.6-40h-138.3v-226.6c0-12.9-10.5-23.4-23.4-23.4h-125c-12.9 0-23.4 10.5-23.4 23.4z" />
  </svg>

<svg height="1000" width="1000" xmlns="http://www.w3.org/2000/svg"><path d="M984.4 500c0 267.6 -216.8 484.4 -484.4 484.4S15.6 767.6 15.6 500 232.4 15.6 500 15.6 984.4 232.4 984.4 500zM414.1 273.4V500H275.6c-20.9 0 -31.5 25.4 -16.6 40l224.4 223.3c9.2 9.2 23.8 9.2 33 0L740.8 540c14.9 -14.8 4.3 -40 -16.6 -40H585.9V273.4c0 -12.9 -10.5 -23.4 -23.4 -23.4h-125c-12.9 0 -23.4 10.5 -23.4 23.4z"/></svg>
